src/Assets/icons/map-outline.svg

<svg class="svg-icon" viewBox="0 0 24 24" fill="none" xmlns="http://www.w3.org/2000/svg">
<path d="M3 9C3 8.01858 3 7.52786 3.21115 7.10557C3.42229 6.68328 3.81486 6.38885 4.6 5.8L7 4V4C7.69964 3.47527 8.04946 3.2129 8.43022 3.11365C8.79466 3.01866 9.17851 3.02849 9.53761 3.14203C9.91278 3.26065 10.2487 3.54059 10.9206 4.10046L12.5699 5.47491C13.736 6.44667 14.3191 6.93255 15.0141 6.95036C15.7091 6.96817 16.3163 6.51279 17.5306 5.60203L18 5.25V5.25C19.2361 4.32295 21 5.20492 21 6.75V14V15C21 15.9814 21 16.4721 20.7889 16.8944C20.5777 17.3167 20.1851 17.6111 19.4 18.2L17 20V20C16.3004 20.5247 15.9505 20.7871 15.5698 20.8863C15.2053 20.9813 14.8215 20.9715 14.4624 20.858C14.0872 20.7394 13.7513 20.4594 13.0794 19.8995L10.9206 18.1005C10.2487 17.5406 9.91278 17.2606 9.53761 17.142C9.17851 17.0285 8.79466 17.0187 8.43022 17.1137C8.04946 17.2129 7.69964 17.4753 7 18V18V18C6.3181 18.5114 5.97715 18.7671 5.7171 18.867C4.61978 19.2885 3.39734 18.6773 3.07612 17.5465C3 17.2786 3 16.8524 3 16V10V9Z" stroke="currentColor" stroke-width="2" stroke-linejoin="round"/>
<path d="M15 7.22924V20.5" stroke="currentColor" stroke-width="2" stroke-linecap="round" stroke-linejoin="round"/>
<path d="M9 3.5V16.7083" stroke="currentColor" stroke-width="2" stroke-linecap="round" stroke-linejoin="round"/>
</svg>

<svg class="svg-icon" viewBox="0 0 24 24" fill="none" xmlns="http://www.w3.org/2000/svg"><path d="M3 9c0-.981 0-1.472.211-1.894.211-.423.604-.717 1.389-1.306L7 4c.7-.525 1.05-.787 1.43-.886a2 2 0 0 1 1.108.028c.375.119.71.399 1.383.958l1.649 1.375c1.166.972 1.75 1.458 2.444 1.475.695.018 1.302-.437 2.517-1.348L18 5.25c1.236-.927 3-.045 3 1.5V15c0 .981 0 1.472-.211 1.894-.211.423-.604.717-1.389 1.306L17 20c-.7.525-1.05.787-1.43.886a2 2 0 0 1-1.108-.028c-.375-.119-.71-.399-1.383-.959L10.921 18.1c-.672-.56-1.008-.84-1.383-.958a2 2 0 0 0-1.108-.028c-.38.099-.73.361-1.43.886-.682.511-1.023.767-1.283.867a2 2 0 0 1-2.64-1.32C3 17.279 3 16.852 3 16V9Z" stroke="currentColor" stroke-width="2" stroke-linejoin="round"/><path d="M15 7.23V20.5m-6-17v13.208" stroke="currentColor" stroke-width="2" stroke-linecap="round" stroke-linejoin="round"/></svg>
